packages/ckeditor5-icons/theme/icons/thumb-down.svg

<svg viewBox="0 0 20 20" xmlns="http://www.w3.org/2000/svg">
<path fill-rule="evenodd" clip-rule="evenodd" d="M13.9498 11.8908V3.51033C13.9498 2.40006 13.0468 1.5 11.933 1.5H4.37969C3.48411 1.5 2.69581 2.08873 2.44418 2.9455L0.0825119 10.9868C-0.295483 12.2739 0.672678 13.562 2.01802 13.562H6.37076L5.58291 16.1798C5.26969 17.2205 5.84275 18.321 6.87685 18.6646L7.57525 18.8967C8.40915 19.1738 9.32702 18.8806 9.84402 18.1719L13.564 13.0732C13.8147 12.7296 13.9498 12.3157 13.9498 11.8908ZM12.4372 3.51033V11.8908C12.4372 11.997 12.4034 12.1005 12.3408 12.1864L8.62076 17.2851C8.49151 17.4623 8.26204 17.5356 8.05357 17.4663L7.35517 17.2343C7.09664 17.1484 6.95338 16.8732 7.03168 16.6131L8.20897 12.7012C8.30602 12.3788 8.06378 12.0542 7.72605 12.0542H2.01802C1.68169 12.0542 1.43965 11.7322 1.53415 11.4105L3.89581 3.36912C3.95872 3.15493 4.1558 3.00775 4.37969 3.00775H11.933C12.2115 3.00775 12.4372 3.23276 12.4372 3.51033Z"/>
<path fill-rule="evenodd" clip-rule="evenodd" d="M16.6724 13.562H18.2858C19.2325 13.562 20 12.797 20 11.8532V3.20881C20 2.26507 19.2325 1.50002 18.2858 1.50002H16.6724C15.7256 1.50002 14.9581 2.26507 14.9581 3.20881V11.8532C14.9581 12.797 15.7256 13.562 16.6724 13.562ZM18.4874 11.8532C18.4874 11.9643 18.3971 12.0543 18.2858 12.0543H16.6724C16.561 12.0543 16.4707 11.9643 16.4707 11.8532V3.20881C16.4707 3.09778 16.561 3.00777 16.6724 3.00777H18.2858C18.3971 3.00777 18.4874 3.09778 18.4874 3.20881V11.8532Z"/>
</svg>

<svg xmlns="http://www.w3.org/2000/svg" viewBox="0 0 20 20"><path fill-rule="evenodd" d="M13.95 11.89V3.51c0-1.11-.903-2.01-2.017-2.01H4.38c-.896 0-1.684.589-1.936 1.446l-2.361 8.04a2.012 2.012 0 0 0 1.935 2.576h4.353l-.788 2.618a2.01 2.01 0 0 0 1.294 2.485l.698.232a2.02 2.02 0 0 0 2.269-.725l3.72-5.099c.25-.343.386-.757.386-1.182m-1.513-8.38v8.38c0 .107-.034.21-.096.296l-3.72 5.1a.505.505 0 0 1-.567.18l-.699-.232a.5.5 0 0 1-.323-.62L8.209 12.7a.503.503 0 0 0-.483-.647H2.018a.503.503 0 0 1-.484-.643l2.362-8.042a.504.504 0 0 1 .484-.361h7.553c.278 0 .504.225.504.502m4.235 10.053h1.614c.947 0 1.714-.765 1.714-1.709V3.21c0-.944-.767-1.709-1.714-1.709h-1.614c-.946 0-1.714.765-1.714 1.709v8.644c0 .944.768 1.709 1.714 1.709m1.815-1.709c0 .111-.09.201-.201.201h-1.614a.2.2 0 0 1-.201-.2V3.208c0-.111.09-.201.201-.201h1.614a.2.2 0 0 1 .201.2z" clip-rule="evenodd"/></svg>
